X: 2
T: Jenny Picking Cockles
R: reel
M: 4/4
L: 1/8
K: Dmix
Addc AGEF | GEcE dEcE | Addc AGEF | GEcE ED D2 |Addc AGEF | (3GGG AB cBcA | ecdB cABG | GEcE ED D2 :||~f3d efed | ^cA(3AAA cAGA | ~f3d eA (3B^cd | e2ag ed d2 |fd(3ddd efed | ^cAAB ~=c3d | e=cdB cABG | GE=cE ED D2 :||


Tune 202	Setting 12864

